!!!COM: Palestrina, Giovanni Perluigi da
!!!OPR: Missa Gia fu chi m'ebbe cara
!!!OMD: Credo
!!!OTL: First Section
**kern	**kern	**kern	**kern
*Ibass	*Itenor	*Icalto	*Icant
!Bassus	!Tenor	!Altus	!Cantus
*clefF4	*clefGv2	*clefG2	*clefG2
*k[]	*k[]	*k[]	*k[]
*D:dor	*D:dor	*D:dor	*D:dor
*M4/2	*M4/2	*M4/2	*M4/2
=1	=1	=1	=1
0r	1d	1a	0r
.	2f	2a	.
.	2e	2g	.
=2	=2	=2	=2
1r	2f	2a	0r
.	2d	2b	.
1A	2.c	1cc	.
.	4d	.	.
=3	=3	=3	=3
2c	4e	1g	0r
.	4f	.	.
2B	1g	.	.
2c	.	1r	.
2A	2f#	.	.
=4	=4	=4	=4
2.G	2.g	0r	0r
4A	4f	.	.
4B	4d	.	.
4c	4e	.	.
[2d	4f	.	.
.	4d	.	.
=5	=5	=5	=5
2d]	2e	0r	1r
2c#	2e	.	.
1d	2f	.	1a
.	[2a	.	.
=6	=6	=6	=6
1e	2a]	0r	2cc
.	2g#	.	2b
1A	1a	.	2cc
.	.	.	2a
=7	=7	=7	=7
2c	0r	1e	2.g
2c	.	.	.
.	.	.	4a
2G	.	2g	4b
.	.	.	4cc
2D	.	2f	[2dd
=8	=8	=8	=8
2G	1r	2g	2dd]
2A	.	2e	2cc
1D	2r	2.d	2.dd
.	2d	.	.
.	.	4e	8cc
.	.	.	8b
=9	=9	=9	=9
0r	2d	4f	1a
.	.	4g	.
.	2c	1a	.
.	2d	.	1b
.	2e	2g#	.
=10	=10	=10	=10
1r	2f	4a	1a
.	.	4g	.
.	2d	4f	.
.	.	8e	.
.	.	8d	.
1A	2c#	2e	2r
.	2c#	2a	2ee
=11	=11	=11	=11
2D	2d	2a	2ff
2.A	2.c	2.a	2.ee
4A	4A	4a	4cc
2F	2A	2a	2dd
=12	=12	=12	=12
2E	2B	2.g	2ee
2C	2c	.	2ee
.	.	4g	.
2G	1B	2.g	2dd
2G	.	.	2b
.	.	4f	.
=13	=13	=13	=13
2A	2r	2e	2cc
2B	1g	2d	2dd
2c	.	1a	2ee
[2d	2f	.	[2ff
=14	=14	=14	=14
2d]	2d	2f	4ff]
.	.	.	4ee
2B-	2d	2g	1dd
1A	2.e	2.a	.
.	.	.	2cc#
.	4e	4a	.
=15	=15	=15	=15
1D	1f#	1a	1dd
2.G	2.g	2.b	2.dd
4G	4g	4b	4dd
=16	=16	=16	=16
2G	2g	2b	2dd
2G	2g	2b	2dd
2C	2g	2cc	2ee
2C	2g	2cc	2ee
=17	=17	=17	=17
1G	1g	1b	1dd
2r	1e	1g	2r
[2c	.	.	[2ee
=18	=18	=18	=18
2c]	2g	2e	2ee]
2A	2.a	1f	2cc
1B-	.	.	[1dd
.	8g	.	.
.	8f	.	.
.	2g	4e	.
.	.	4d	.
=19	=19	=19	=19
1A	1a	2f	2dd]
.	.	2e	2cc#
2r	2r	2r	2r
[2A	[2e	[2a	[2cc#
=20	=20	=20	=20
4A]	4e]	4a]	4cc#]
4A	4e	4a	4cc#
2A	2e	2a	2cc#
2d	2f#	2a	2dd
2G	2g	2b	2dd
=21	=21	=21	=21
4c	1.e	2cc	4ee
4d	.	.	4ff
4e	.	1g	4gg
4d	.	.	4ff
4c	.	.	4ee
4B	.	.	4dd
4A	2e	[2a	4cc
4G	.	.	4b
=22	=22	=22	=22
1.F	4f	4a]	1.a
.	4g	4b	.
.	4a	4cc	.
.	4g	4b	.
.	4f	4a	.
.	4e	4g	.
2F	4d	4f	2a
.	4c	4e	.
=23	=23	=23	=23
1G	4B	2d	2.g
.	4c	.	.
.	1d	2d	.
.	.	.	4f
2.A	.	1a	2e
.	2c#	.	2e
4A	.	.	.
=24	=24	=24	=24
0D	0d	2r	1d
.	.	1a	.
.	.	.	2r
.	.	2b-	2dd
=25	=25	=25	=25
1r	0r	2a	2ff
.	.	2g	2ee
2r	.	2b-	2dd
2A	.	4a	[2ff
.	.	4g	.
=26	=26	=26	=26
1B-	2r	2f	4ff]
.	.	.	4ee
.	2d	2g	1dd
1A	2f	1a	.
.	[2e	.	2cc#
=27	=27	=27	=27
2G	2e]	0r	0r
2.B-	2d	.	.
.	2f	.	.
4A	.	.	.
4G	4e	.	.
4F	4d	.	.
=28	=28	=28	=28
2.G	4e	1r	0r
.	4d	.	.
.	1d	.	.
4F	.	.	.
1E	.	2r	.
.	2c#	2g	.
=29	=29	=29	=29
1D	1d	2b-	2r
.	.	1a	2dd
1r	1r	.	2ff
.	.	2g	2ee
=30	=30	=30	=30
0r	1r	2b-	2dd
.	.	2.a	2ff
.	2r	.	2ee
.	.	4g	.
.	2d	4f	2dd
.	.	4g	.
=31	=31	=31	=31
0r	2f	4a	4cc
.	.	4b	4dd
.	2e	2cc	4ee
.	.	.	4cc
.	2d	4b	4dd
.	.	4a	4cc
.	2f	[2a	4b
.	.	.	4a
=32	=32	=32	=32
1r	2.e	2a]	1b
.	.	2g#	.
.	4e	.	.
1d	2f	[1a	1a
.	2d	.	.
=33	=33	=33	=33
2c	2e	1a]	1r
2A	2f	.	.
1B-	1g	2r	1dd
.	.	2d	.
=34	=34	=34	=34
1A	1a	2e	2cc
.	.	2f	2a
1r	2r	1g	1b-
.	2g	.	.
=35	=35	=35	=35
2r	2f	1d	0a
2d	2d	.	.
2c	2e	2r	.
2A	2e	2a	.
=36	=36	=36	=36
2B-	2d	2f	2r
2B-	2d	2g	2dd
1A	2e	2a	2cc
.	2f	2a	2a
=37	=37	=37	=37
1G	2g	2d	2b-
.	2g	1g	2b-
2r	1d	.	[1a
[2d	.	2f	.
=38	=38	=38	=38
2d]	2r	1e	1a]
2c	1a	.	.
1B-	.	1d	2r
.	2g	.	[2dd
=39	=39	=39	=39
1A	2f	2r	2dd]
.	1e	2e	2cc
1G	.	1g	1b-
.	[2d	.	.
=40	=40	=40	=40
1A	4d]	2f	2a
.	4c	.	.
.	2c	2.e	2a
1B-	1d	.	2f
.	.	4d	.
.	.	[2d	2g
=41	=41	=41	=41
0A	1f	2d]	0a
.	.	4c#	.
.	.	4B	.
.	1e	1c#	.
=42	=42	=42	=42
1D	0f#	1d	0a
2.d	.	1r	.
4d	.	.	.
=43	=43	=43	=43
2d	0r	2.a	0r
2d	.	.	.
.	.	4a	.
2c	.	2a	.
2A	.	2a	.
=44	=44	=44	=44
1.c	0r	2g	0r
.	.	2e	.
.	.	[1g	.
2B	.	.	.
=45	=45	=45	=45
2c	0r	2g]	0r
2d	.	2f	.
2e	.	2g	.
2c	.	2a	.
=46	=46	=46	=46
2.d	0r	2b-	2r
.	.	1a	1dd
4c	.	.	.
1B-	.	.	.
.	.	2g	2dd
=47	=47	=47	=47
0A	2r	2.a	2cc
.	1a	.	2a
.	.	8g	.
.	.	8f	.
.	.	1e	1cc
.	2a	.	.
=48	=48	=48	=48
1.d	2f	1r	2.dd
.	2d	.	.
.	.	.	8cc
.	.	.	8b-
.	1f	2r	2.a
2d	.	[2a	.
.	.	.	4b
=49	=49	=49	=49
2c	4e	2a]	4cc
.	4d	.	4dd
2A	4c	2a	2.ee
.	4d	.	.
1c	4e	2g	.
.	4f	.	4dd
.	[2g	2e	[2cc
=50	=50	=50	=50
1d	4g]	1f	2cc]
.	4f	.	.
.	1f	.	2b
1c	.	2g	[1cc
.	2e	2g	.
=51	=51	=51	=51
[0F	0f	2a	1cc]
.	.	2a	.
.	.	2.cc	2r
.	.	.	2a
.	.	4b-	.
=52	=52	=52	=52
1F]	0r	4a	1cc
.	.	4g	.
.	.	2a	.
1r	.	2f	2cc
.	.	2g	2b
=53	=53	=53	=53
2r	1r	2a	2cc
2d	.	2f	2dd
2.c	1A	2e	[1ee
.	.	2e	.
4B	.	.	.
=54	=54	=54	=54
4A	1c	2e	1ee]
4G	.	.	.
2A	.	2e	.
2F	2c	2f	1r
2G	2B	[2e	.
=55	=55	=55	=55
2A	2c	2e]	1r
2F	2d	1d	.
1E	1e	.	2r
.	.	2c#	2ee
=56	=56	=56	=56
0D	2A	4d	2.ff
.	.	4e	.
.	2d	4f	.
.	.	4g	4ee
.	2d	4a	4dd
.	.	8g	4cc
.	.	8a	.
.	2d	2b-	2dd
=57	=57	=57	=57
0r	1f	1a	2cc
.	.	.	2dd
.	2g	2r	2ee
.	2a	[2a	2cc
=58	=58	=58	=58
1r	2.e	2a]	1b
.	.	1g	.
.	4d	.	.
2r	2c	.	[1a
[2d	2d	2f	.
=59	=59	=59	=59
2d]	2A	1e	1a]
1c	2a	.	.
.	1g	1d	2r
2B-	.	.	[2dd
=60	=60	=60	=60
1A	2f	1a	2dd]
.	2e	.	1cc
1G	1g	2r	.
.	.	2d	2b-
=61	=61	=61	=61
2.F	2c	4f	2.a
.	.	8e	.
.	.	8d	.
.	2A	2c	.
4E	.	.	4g
2D	2.a	2d	2f
2C#	.	2e	2e
.	4g	.	.
=62	=62	=62	=62
0D	2.f	2.a	4d
.	.	.	4e
.	.	.	4f
.	4e	4g	4g
.	1d	1f	1a
=63	=63	=63	=63
1A	1c#	1e	1a
1r	1r	1r	1r
=64	=64	=64	=64
1A	1e	1a	1cc#
2A	2e	2a	2cc#
2A	2e	2a	2cc#
=65	=65	=65	=65
1d	1f#	1a	1dd
1G	1g	1b	1dd
=66	=66	=66	=66
0c	2g	2cc	1ee
.	2e	2g	.
.	2e	2g	2r
.	2e	2g	2cc
=67	=67	=67	=67
0r	2.f	4a	2cc
.	.	4b	.
.	.	2.cc	2cc
.	4e	.	.
.	2f	.	1dd
.	.	8b	.
.	.	8a	.
.	2g	2b	.
=68	=68	=68	=68
1r	4c	1cc	1ee
.	4d	.	.
.	4e	.	.
.	4f	.	.
[1G	2g	2b	2dd
.	[2d	[2g	[2b
=69	=69	=69	=69
2G]	2d]	2g]	2b]
2G	2d	2g	2b
2E	2e	2g	2cc
2D	2f	2a	2dd
=70	=70	=70	=70
1.C	1.g	1.cc	1.ee
2C	2g	2cc	2ee
=71	=71	=71	=71
1G	2g	2.b	2.dd
.	2d	.	.
.	.	4a	4cc
2r	4e	1g	4b
.	4f	.	4a
2G	4g	.	2b
.	4f	.	.
=72	=72	=72	=72
4A	4e	2r	1cc
4B	4d	.	.
4c	1c	2e	.
4B	.	.	.
4A	.	4f	2r
4G	.	4g	.
4F	2A	4a	2cc
4E	.	4g	.
=73	=73	=73	=73
1D	2.a	4f	4dd
.	.	4e	4ee
.	.	1d	4ff
.	4g	.	4ee
1D	4f	.	4dd
.	4e	.	4cc
.	4d	2f	4b
.	4c	.	4a
=74	=74	=74	=74
1E	2B	1e	2g#
.	2A	.	2a
1E	1B	1e	2a
.	.	.	2g#
=75	=75	=75	=75
0A	0c#	0e	0a
*-	*-	*-	*-
!!!CDT: 1525/^1526/-1594/2/2
!!!OCY: Italia
!!!AGN: Mass (Parody)
!!!AST: renaissance, vocal
!!!ASW: Madrigal 1555 (Palestrina)
!!!PWK: Masses, Book 10
!!!RNB: Cadence finals: A
!!!YOR: Le Opere Complete, v. 27, p. 30
!!!YOO: Rome, Italy: Fratelli Scalera
!!!END: 1992//
!!!EED: John Miller
!!!YEC: Copyright 2000, John Miller
!!!YEN: United States of America
!!!YEM: Rights to all derivative electronic formats reserved.
!!!YEM: Refer to licensing agreement for further details.
!!!YEM: This file must be accompanied by the licensing agreement.
!!!YEM: A copy of the licensing agreement may be found at http://www.music-cog.ohio-state.edu/HumdrumDatabases/Palestrina/license.txt
!!!EMD: converted to Humdrum by Bret Aarden
